X:28
T:The Prophet
N:page 19 on manuscript
M:2/4
L:1/8
K:F
c/B/ | AFBG | FEDC | FFFd | (c2 A) z | B(B/c/ d)B | A(A/B/ c)A | BGcB | A2 F H:|
c | c2 Ac | G=B ce | d=B GF | E>F G2 | cccc | A=B cd | fc G=B | c2 c +D.C.+ |]

